svg/transport/seat_line.svg

<?xml version="1.0" encoding="UTF-8"?>
<svg width="24px" height="24px" viewBox="0 0 24 24" version="1.1" xmlns="http://www.w3.org/2000/svg" xmlns:xlink="http://www.w3.org/1999/xlink">
    <title>seat_line</title>
    <g id="页面-1" stroke="none" stroke-width="1" fill="none" fill-rule="evenodd">
        <g id="Transport" transform="translate(-336.000000, -192.000000)">
            <g id="seat_line" transform="translate(336.000000, 192.000000)">
                 <path d="M24,0 L24,24 L0,24 L0,0 L24,0 Z M12.5934901,23.257841 L12.5819402,23.2595131 L12.5108777,23.2950439 L12.4918791,23.2987469 L12.4918791,23.2987469 L12.4767152,23.2950439 L12.4056548,23.2595131 C12.3958229,23.2563662 12.3870493,23.2590235 12.3821421,23.2649074 L12.3780323,23.275831 L12.360941,23.7031097 L12.3658947,23.7234994 L12.3769048,23.7357139 L12.4804777,23.8096931 L12.4953491,23.8136134 L12.4953491,23.8136134 L12.5071152,23.8096931 L12.6106902,23.7357139 L12.6232938,23.7196733 L12.6232938,23.7196733 L12.6266527,23.7031097 L12.609561,23.275831 C12.6075724,23.2657013 12.6010112,23.2592993 12.5934901,23.257841 L12.5934901,23.257841 Z M12.8583906,23.1452862 L12.8445485,23.1473072 L12.6598443,23.2396597 L12.6498822,23.2499052 L12.6498822,23.2499052 L12.6471943,23.2611114 L12.6650943,23.6906389 L12.6699349,23.7034178 L12.6699349,23.7034178 L12.678386,23.7104931 L12.8793402,23.8032389 C12.8914285,23.8068999 12.9022333,23.8029875 12.9078286,23.7952264 L12.9118235,23.7811639 L12.8776777,23.1665331 C12.8752882,23.1545897 12.8674102,23.1470016 12.8583906,23.1452862 L12.8583906,23.1452862 Z M12.1430473,23.1473072 C12.1332178,23.1423925 12.1221763,23.1452606 12.1156365,23.1525954 L12.1099173,23.1665331 L12.0757714,23.7811639 C12.0751323,23.7926639 12.0828099,23.8018602 12.0926481,23.8045676 L12.108256,23.8032389 L12.3092106,23.7104931 L12.3186497,23.7024347 L12.3186497,23.7024347 L12.3225043,23.6906389 L12.340401,23.2611114 L12.337245,23.2485176 L12.337245,23.2485176 L12.3277531,23.2396597 L12.1430473,23.1473072 Z" id="MingCute" fill-rule="nonzero"></path>
                <path d="M3.468,16.7451 C3.96246,15.7871 5.00686,15.1459 6.27161,15.304 C7.48558,15.4557 8.86027,15.6843 10.2424,16.0299 C12.4889207,16.5915138 14.4234189,17.7300837 15.7548181,18.6842267 L16.1548729,18.9785165 C16.2180943,19.026247 16.2795601,19.0732446 16.339228,19.1193984 L16.6753206,19.3853061 L16.6753206,19.3853061 L16.9662255,19.6256321 L16.9662255,19.6256321 L17.3134,19.9265 L17.3134,19.9265 C18.156763,20.6782852 17.5834005,21.9049395 16.6287814,21.9947715 L16.517,22 L7.92239,22 C6.48785444,22 5.12678198,21.3841802 4.18063957,20.3165601 L4.01805,20.1235 L3.81854,19.8741 C3.0446,18.9067 2.97961,17.6913 3.468,16.7451 Z M6.02356,17.2885 C5.62425,17.2386 5.37075,17.4192 5.24523,17.6624 C5.12826111,17.8890667 5.1096942,18.2028049 5.29922649,18.509994 L5.38027,18.6247 L5.57978,18.8741 C6.10843429,19.5348714 6.88939867,19.9392974 7.72794562,19.9937013 L7.92239,20 L14.1431,20 C12.9927,19.2272 11.4665,18.3974 9.75736,17.9701 C8.47251,17.6489 7.18019,17.4331 6.02356,17.2885 Z M19,2 C19.6203,2 20.074,2.33779 20.3608,2.70373 C20.6334,3.0514 20.81,3.48403 20.9333,3.90041 C21.1826,4.74279 21.3005,5.82735 21.345,6.90866 C21.3824316,7.82022632 21.3693191,8.78527961 21.3220699,9.68499991 L21.2804887,10.3456836 C21.209285,11.3127646 21.1000684,12.1595632 20.9762,12.7169 C20.4432,15.1152 19.5105,16.5645 18.4678,17.3542 C17.4694,18.1103 16.3114,18.2737 15.5527,17.8944 C15.222,17.7291 14.9006,17.4323 14.6353,17.1238 C14.3523,16.7947 14.0667,16.3746 13.8336,15.8865 C13.3681,14.9122 13.0812,13.594 13.5513,12.1838 C13.8422077,11.3110769 14.4028237,10.7670586 14.8967327,10.3595163 L15.2154,10.1036 C15.7781,9.6556 16.2462,9.27158 16.6056,8.55279 C16.6984,8.3671 16.7662,7.99214 16.7815,7.35774 L16.7852519,7.05501963 L16.7852519,7.05501963 L16.7773,6.30933 C16.7722,6.00865 16.7668,5.69183 16.7699,5.38475 C16.7766,4.7354 16.8182,3.9659 17.0707,3.33768 C17.2044,3.00523 17.4181,2.65662 17.7672,2.39328 C18.1275,2.1215 18.5534,2 19,2 Z M18.9026,4.14932 C18.8197,4.40192 18.7759,4.8109 18.7698,5.40521 L18.7692889,5.68716259 L18.7692889,5.68716259 L18.7787,6.37591 C18.7843,6.71078 18.7892,7.06402 18.7809,7.40596 C18.7654,8.04782 18.7049,8.82621 18.3944,9.44721 C17.9586308,10.3187408 17.4008497,10.8838278 16.9036239,11.3076007 L16.6140157,11.5462278 L16.6140157,11.5462278 L16.4611,11.6683 C15.8663,12.1419 15.5924,12.3848 15.4486,12.8162 C15.1854,13.6061 15.3297,14.3785 15.6382,15.0245 C15.7921,15.3466 15.9791,15.619 16.1518,15.8198 C16.2328,15.91406 16.300552,15.98096 16.350736,16.026224 L16.4264,16.0896 L16.4264,16.0896 L16.5212984,16.0860408 C16.654092,16.075004 16.91454,16.02174 17.2603,15.7599 C17.8082,15.3449 18.5567,14.3848 19.0238,12.2831 C19.06636,12.0916 19.108184,11.847068 19.1471896,11.5619646 L19.2033239,11.1054387 C19.2122405,11.0247988 19.220916,10.9420126 19.2293176,10.8572747 L19.2761822,10.326986 L19.2761822,10.326986 L19.3149146,9.75920387 C19.3206055,9.66196827 19.3258926,9.56355984 19.3307432,9.46417328 L19.3543491,8.85767394 C19.372197,8.2425522 19.37199,7.606236 19.3467,6.99078 C19.3045,5.96385 19.1948,5.07355 19.0155,4.46813 C18.9764,4.33586 18.9378,4.23096 18.9026,4.14932 Z" id="形状" fill="#09244B"></path>
            </g>
        </g>
    </g>
</svg>

<svg xmlns="http://www.w3.org/2000/svg" width="24" height="24"><g fill="none" fill-rule="evenodd"><path d="M24 0v24H0V0h24ZM12.593 23.258l-.011.002-.071.035-.02.004-.014-.004-.071-.035c-.01-.004-.019-.001-.024.005l-.004.01-.017.428.005.02.01.013.104.074.015.004.012-.004.104-.074.012-.016.004-.017-.017-.427c-.002-.01-.009-.017-.017-.018Zm.265-.113-.013.002-.185.093-.01.01-.003.011.018.43.005.012.008.007.201.093c.012.004.023 0 .029-.008l.004-.014-.034-.614c-.003-.012-.01-.02-.02-.022Zm-.715.002a.023.023 0 0 0-.027.006l-.006.014-.034.614c0 .012.007.02.017.024l.015-.002.201-.093.01-.008.004-.011.017-.43-.003-.012-.01-.01-.184-.092Z"/><path fill="#09244B" d="M3.468 16.745c.494-.958 1.539-1.6 2.804-1.441 1.214.152 2.588.38 3.97.726 2.247.562 4.181 1.7 5.513 2.654l.4.295.184.14.336.266.291.24.347.302c.844.751.27 1.978-.684 2.068l-.112.005H7.922a5 5 0 0 1-3.741-1.683l-.163-.194-.2-.249c-.773-.967-.838-2.183-.35-3.129Zm2.556.543c-.4-.05-.653.131-.779.374a.85.85 0 0 0 .054.848l.081.115.2.25a3 3 0 0 0 2.148 1.119l.194.006h6.221c-1.15-.773-2.677-1.603-4.386-2.03a31.86 31.86 0 0 0-3.733-.681ZM19 2c.62 0 1.074.338 1.36.704.273.347.45.78.573 1.196.25.843.367 1.927.412 3.009.037.911.024 1.876-.023 2.776l-.042.66c-.07.968-.18 1.815-.304 2.372-.533 2.398-1.465 3.847-2.508 4.637-.999.756-2.157.92-2.915.54-.331-.165-.652-.462-.918-.77a5.653 5.653 0 0 1-.801-1.237c-.466-.975-.753-2.293-.283-3.703.291-.873.852-1.417 1.346-1.824l.318-.256c.563-.448 1.031-.832 1.39-1.551.093-.186.161-.56.177-1.195l.003-.303-.008-.746c-.005-.3-.01-.617-.007-.924.007-.65.048-1.42.3-2.047.134-.333.348-.681.697-.945A2.01 2.01 0 0 1 19 2Zm-.097 2.15c-.083.252-.127.66-.133 1.255v.282l.009.689c.005.335.01.688.002 1.03-.016.642-.076 1.42-.387 2.041-.435.872-.993 1.437-1.49 1.86l-.29.24-.153.121c-.595.474-.869.717-1.012 1.148-.264.79-.12 1.563.19 2.208.153.323.34.595.513.796.08.094.149.161.199.206l.075.064.095-.004c.133-.011.394-.064.74-.326.547-.415 1.296-1.375 1.763-3.477.042-.191.084-.436.123-.721l.056-.457c.01-.08.018-.163.026-.248l.047-.53.039-.568.016-.295.023-.606c.018-.615.018-1.252-.007-1.867-.043-1.027-.152-1.917-.332-2.523a2.852 2.852 0 0 0-.112-.319Z"/></g></svg>
